src/assets/images/upload-icon.svg

<svg width="24" height="24" fill="none" xmlns="http://www.w3.org/2000/svg"><path d="M19 12v7H5v-7H3v7c0 1.1.9 2 2 2h14c1.1 0 2-.9 2-2v-7h-2z" fill="#000"/><path d="M8.41 8.41 11 5.83v9.67h2V5.83l2.59 2.58L17 7l-5-5-5 5 1.41 1.41z" fill="#000"/></svg>

<svg width="24" height="24" viewBox="0 0 24 24" fill="none" xmlns="http://www.w3.org/2000/svg">
<path d="M19 12V19H5V12H3V19C3 20.1 3.9 21 5 21H19C20.1 21 21 20.1 21 19V12H19Z" fill="black"/>
<path d="M8.41 8.41L11 5.83L11 15.5L13 15.5L13 5.83L15.59 8.41L17 7L12 2L7 7L8.41 8.41Z" fill="black"/>
</svg>
